X:435
T:Egan's Polka 1
S:Adapted from various sessions
Z:Nigel Gatherer
M:2/4
L:1/8
K:G
BD ED | BD ED | G2 A>B | AG ED |
BD ED | BD ED | G2 A>B | AG G2 :|
B2 BA | AG ED | G2 A>B | AG ED |
B2 BA | AG ED | G2 A>B | AG G2 :|
<end>
<start>
